X:46
T: WENN MICH NUR MEIN ROESCHEN LIEBT
N: F0131
O: Europa, Mitteleuropa, Deutschland
R: Liebes - Lied
M: 2/4
L: 1/16
K: F
 | F2C2C2F2 | G2GBA4 |
BdAcGBDG | E4FcBG |
F2C2C2F2 | G2GBA4 |
BdAcGBDG | E4Fz3 |
C2C2c2C2 | C2C2B4 |
A2GFdBGF | E3DC4 |
F2C2C2F2 | G2GBA4 |
BDACGBDG | E4Fz3

@@@ Tune index: 5477
